usr/share/icons/biglinux-icons-material/scalable/mimetypes/application-x-ms-shortcut.svg

<svg width="24" height="24" viewBox="0 0 24 24" fill="none" xmlns="http://www.w3.org/2000/svg">
<rect x="1" y="1" width="22" height="22" rx="6.6" fill="url(#paint0_radial_3_989)"/>
<path d="M6.75 10C5.7805 10 5 10.7805 5 11.75C5 12.7195 5.7805 13.5 6.75 13.5H9.375C10.0238 13.5 10.5818 13.1468 10.884 12.625H10.3389C10.0996 12.8896 9.76153 13.0625 9.375 13.0625H6.75C6.02288 13.0625 5.4375 12.4771 5.4375 11.75C5.4375 11.0229 6.02288 10.4375 6.75 10.4375H9.375C9.76154 10.4375 10.0996 10.6104 10.3389 10.875H10.884C10.5818 10.3532 10.0238 10 9.375 10H6.75Z" fill="#BBBBBB"/>
<path d="M14.625 10C13.9762 10 13.4182 10.3532 13.116 10.875H13.6611C13.9004 10.6104 14.2385 10.4375 14.625 10.4375H17.25C17.9771 10.4375 18.5625 11.0229 18.5625 11.75C18.5625 12.4771 17.9771 13.0625 17.25 13.0625H14.625C14.2385 13.0625 13.9004 12.8896 13.6611 12.625H13.116C13.4182 13.1468 13.9762 13.5 14.625 13.5H17.25C18.2195 13.5 19 12.7195 19 11.75C19 10.7805 18.2195 10 17.25 10H14.625Z" fill="#BBBBBB"/>
<path d="M10.6875 11.3124H13.3125C13.5549 11.3124 13.75 11.5075 13.75 11.7499C13.75 11.9922 13.5549 12.1874 13.3125 12.1874H10.6875C10.4451 12.1874 10.25 11.9922 10.25 11.7499C10.25 11.5075 10.4451 11.3124 10.6875 11.3124Z" fill="#BBBBBB"/>
<defs>
<radialGradient id="paint0_radial_3_989" cx="0" cy="0" r="1" gradientUnits="userSpaceOnUse" gradientTransform="translate(17.5 1) rotate(116.565) scale(24.5967)">
<stop stop-color="#BBBBBB"/>
<stop offset="1" stop-color="#363636"/>
</radialGradient>
</defs>
</svg>

<svg xmlns="http://www.w3.org/2000/svg" width="24" height="24" fill="none"><rect width="22" height="22" x="1" y="1" fill="url(#a)" rx="6.6"/><path fill="#BBB" d="M6.75 10C5.78 10 5 10.78 5 11.75s.78 1.75 1.75 1.75h2.625c.649 0 1.207-.353 1.509-.875h-.545c-.24.265-.577.438-.964.438H6.75a1.31 1.31 0 0 1-1.313-1.313 1.31 1.31 0 0 1 1.313-1.313h2.625c.387 0 .725.173.964.438h.545A1.739 1.739 0 0 0 9.375 10H6.75ZM14.625 10c-.649 0-1.207.353-1.509.875h.545c.24-.265.578-.438.964-.438h2.625a1.31 1.31 0 0 1 1.313 1.313 1.31 1.31 0 0 1-1.313 1.313h-2.625c-.386 0-.725-.173-.964-.438h-.545c.302.522.86.875 1.509.875h2.625c.97 0 1.75-.78 1.75-1.75S18.22 10 17.25 10h-2.625Z"/><path fill="#BBB" d="M10.688 11.312h2.624a.437.437 0 1 1 0 .875h-2.624a.437.437 0 1 1 0-.875Z"/><defs><radialGradient id="a" cx="0" cy="0" r="1" gradientTransform="rotate(116.565 8.441 5.908) scale(24.5967)" gradientUnits="userSpaceOnUse"><stop stop-color="#BBB"/><stop offset="1" stop-color="#363636"/></radialGradient></defs></svg>
